images-ng/colibre/syncViewer.svg

<?xml version="1.0" encoding="UTF-8" standalone="no"?>
<svg
   viewBox="0 0 24 24"
   version="1.1"
   id="svg147"
   sodipodi:docname="lc_syncViewer.svg"
   xml:space="preserve"
   inkscape:version="1.2.1 (9c6d41e410, 2022-07-14)"
   xmlns:inkscape="http://www.inkscape.org/namespaces/inkscape"
   xmlns:sodipodi="http://sodipodi.sourceforge.net/DTD/sodipodi-0.dtd"
   xmlns="http://www.w3.org/2000/svg"
   xmlns:svg="http://www.w3.org/2000/svg"><defs
     id="defs151" /><sodipodi:namedview
     id="namedview149"
     pagecolor="#ffffff"
     bordercolor="#000000"
     borderopacity="0.25"
     inkscape:showpageshadow="2"
     inkscape:pageopacity="0.0"
     inkscape:pagecheckerboard="0"
     inkscape:deskcolor="#d1d1d1"
     showgrid="true"
     inkscape:zoom="32.939391"
     inkscape:cx="9.3808656"
     inkscape:cy="11.991721"
     inkscape:window-width="1920"
     inkscape:window-height="1031"
     inkscape:window-x="0"
     inkscape:window-y="0"
     inkscape:window-maximized="1"
     inkscape:current-layer="svg147"><inkscape:grid
       type="xygrid"
       id="grid466"
       spacingx="0.5"
       spacingy="0.5"
       empspacing="2" /></sodipodi:namedview><path
     d="M 1,1 V 3 H 3 V 8 H 1 v 2 H 7 V 8 H 5 V 3 H 7 V 1 Z"
     id="path448"
     style="fill:#3a3a38" /><rect
     fill="#1e8bcd"
     height="1"
     ry="0.5"
     width="13"
     x="8.996027"
     y="15"
     id="rect468"
     style="fill:#3a3a38" /><rect
     fill="#1e8bcd"
     height="13"
     ry="0.5"
     width="1"
     x="14.996027"
     y="9"
     id="rect470"
     style="fill:#3a3a38" /><path
     d="m 10.496027,18.5 -1.9999999,-3 1.9999999,-3"
     id="path472"
     style="fill:none;stroke:#3a3a38;stroke-linecap:round;stroke-linejoin:round" /><path
     d="m 20.50001,18.5 2,-3 -2,-3"
     id="path474"
     style="fill:none;stroke:#3a3a38;stroke-linecap:round;stroke-linejoin:round" /><path
     d="m 12.501961,10.496028 3,-2.0000003 2.999999,2.0000003"
     id="path476"
     style="fill:none;stroke:#3a3a38;stroke-linecap:round;stroke-linejoin:round" /><path
     d="m 12.501961,20.50001 3,2 3,-2"
     id="path478"
     style="fill:none;stroke:#3a3a38;stroke-linecap:round;stroke-linejoin:round" /><path
     style="fill:none;stroke:#1e8bcd;stroke-width:0.999996;stroke-linecap:round;stroke-linejoin:round"
     d="m 8.5,2.5 h 7 v 4"
     id="path643" /><path
     style="fill:none;stroke:#1e8bcd;stroke-linecap:round;stroke-linejoin:round"
     d="m 13.5,5.5 2,1 2,-1"
     id="path3768" /></svg>

<svg version="1.1" viewBox="0 0 24 24" xmlns="http://www.w3.org/2000/svg"><g fill="#3a3a38"><path d="m1 1v2h2v5h-2v2h6v-2h-2v-5h2v-2z"/><rect x="8.996" y="15" width="13" height="1" ry=".5"/><rect x="14.996" y="9" width="1" height="13" ry=".5"/></g><g fill="none" stroke-linecap="round" stroke-linejoin="round"><g stroke="#3a3a38"><path d="m10.496 18.5-2-3 2-3"/><path d="m20.5 18.5 2-3-2-3"/><path d="m12.502 10.496 3-2 3 2"/><path d="m12.502 20.5 3 2 3-2"/></g><path d="m8.5 2.5h7v4" stroke="#1e8bcd"/><path d="m13.5 5.5 2 1 2-1" stroke="#1e8bcd"/></g></svg>
